X:16178
T:Swedish
M:6/8
L:1/8
K:D Major
dcB|ABA AGF|EDC D3|Ade f3|edc d3|!
Ade f3|edc d2A|BAG FED|/
M:9/8
EDC DA,B, CDE|!
M:6/8
Ddd e3|def g3|fed edc|d3:|!
K:D Minor
dcB|A2f fef|A2f fef|Aff Agg|Aaa Abb|!
A2f fef|A2f f2g|fed ed^c|d3:|!
K:D Major
d2e|fed edc|d2A BAG|FED EDC|DA,B, CDE|!
Ddd e3|def g3|fed edc|d3:|!


